icon-themes/sifr_svg/cmd/sc_safemode.svg

<svg viewBox="0 0 16 16" xmlns="http://www.w3.org/2000/svg"><path d="m10 2c-1.2698042 0-2.4.8-2.8242188 2h-5.1757812v2h5.1738281c.4261719 1.2 1.5556507 2 2.8261719 2 1.269804 0 2.4-.8 2.824219-2h1.175781v-2h-1.173828c-.426172-1.197859-1.555651-2-2.826172-2zm-4 7c-1.2698042.0017817-2.4.8-2.8242188 2h-1.1757812v2h1.1738281c.4261719 1.2 1.5556507 2 2.8261719 2 1 0 1.8390273-.462038 2.3945312-1.2-.0289269-.029695-.0592456-.051687-.0945312-.079297l-.3-.294922v-2.425781h.8261719c-.4261719-1.2-1.5556507-2-2.8261719-2zm6 0v1c1.560655 1.623957-.566483 3.497742-2 2h-1v1c.8.77108 1.635355 1 2.4 1h1.6l2 2h1v-1l-2-2v-1.6c0-.881979-.214695-1.6-1-2.4zm-6 2c.5522847 0 1 .447715 1 1s-.4477153 1-1 1-1-.447715-1-1 .4477153-1 1-1z" fill="#555753"/></svg>

<svg xmlns="http://www.w3.org/2000/svg" viewBox="0 0 16 16">
  <path
     style="fill:#555753"
     d="M 10 2 C 8.7301958 2 7.6 2.8 7.1757812 4 L 2 4 L 2 6 L 7.1738281 6 C 7.6 7.2 8.7294788 8 10 8 C 11.269804 8 12.4 7.2 12.824219 6 L 14 6 L 14 4 L 12.826172 4 C 12.4 2.802141 11.270521 2 10 2 z M 6 9 C 4.7301958 9.0017817 3.6 9.8 3.1757812 11 L 2 11 L 2 13 L 3.1738281 13 C 3.6 14.2 4.7294788 15 6 15 C 7 15 7.8390273 14.537962 8.3945312 13.8 C 8.3656043 13.770305 8.3352856 13.748313 8.3 13.720703 L 8 13.425781 L 8 11 L 8.8261719 11 C 8.4 9.8 7.2705212 9 6 9 z M 12 9 L 12 10 C 13.560655 11.623957 11.433517 13.497742 10 12 L 9 12 L 9 13 C 9.8 13.77108 10.635355 14 11.4 14 L 13 14 L 15 16 L 16 16 L 16 15 L 14 13 L 14 11.4 C 14 10.518021 13.785305 9.8 13 9 L 12 9 z M 6 11 C 6.5522847 11 7 11.447715 7 12 C 7 12.552285 6.5522847 13 6 13 C 5.4477153 13 5 12.552285 5 12 C 5 11.447715 5.4477153 11 6 11 z "
     />
</svg>
